X: 4198
M: 6/8
L: 1/8
K: D
|:\
|:\
d2e fed | g2g g2f | e2f gfe | a2a a2g |\
fdf ecA | dfd ecA | faf gec | d3- d2A :|


